X:2015
T:Glenburnie Rant
M:4/4
O:Scotland
R:Reel
Z:Richard Robinson 
%%TUNEURL: http://www.leeds.ac.uk/music/Info/RRTuneBk/gettune/0000098f.html
%%ID:0000098f
K:E min
F2 |\
E2EF E2EF | DEFG AFDF | E2EF E2B2 | efe^d e2 :|
|: B2 |\
e2ef g2fe | defg afdf \
|1 e2ef g2fe | efe^d e2 :|2 \
g2ag f2gf | efe^d e2 :|
